table-large-plus.svg

<svg fill="currentColor" viewBox="0 0 24 24"><path d="M12.35 20H10v-3h2.09c.12-.72.37-1.39.72-2H10v-3h4v1.54c.58-.54 1.25-.93 2-1.19V12h4v.35c.75.26 1.42.65 2 1.19V5c0-1.1-.9-2-2-2H4c-1.1 0-2 .9-2 2v15c0 1.1.9 2 2 2h9.54c-.54-.58-.93-1.25-1.19-2M16 7h4v3h-4zm-6 0h4v3h-4zM8 20H4v-3h4zm0-5H4v-3h4zm0-5H4V7h4zm9 4h2v3h3v2h-3v3h-2v-3h-3v-2h3z"/></svg>

<svg  viewBox="0 0 24 24" fill="currentColor"><path  d="M12.35 20H10V17H12.09C12.21 16.28 12.46 15.61 12.81 15H10V12H14V13.54C14.58 13 15.25 12.61 16 12.35V12H20V12.35C20.75 12.61 21.42 13 22 13.54V5C22 3.9 21.1 3 20 3H4C2.9 3 2 3.9 2 5V20C2 21.1 2.9 22 4 22H13.54C13 21.42 12.61 20.75 12.35 20M16 7H20V10H16V7M10 7H14V10H10V7M8 20H4V17H8V20M8 15H4V12H8V15M8 10H4V7H8V10M17 14H19V17H22V19H19V22H17V19H14V17H17V14"/></svg>
